X: 40
T: President Garfield's Hornpipe  [D]
O: 1883
R: hornpipe
Z: 2011 John Chambers <jc:trillian.mit.edu>
B: Ryan's Mammoth Collection of Fiddle Tunes, 1883
U: Printed MS from Mike Briggs
M: C|
L: 1/8
K: D
fe |\
"D"dAFA dAFA | dcde fefg | "A"aece aece | "A7"a2b"(#)"g agfe |
"D"dAFA dAFA | dcde fefg | "A"ad'c'b agfe | "A7"(3ded ce "D"d2 :|
|: d'c' |\
"G"bgdB GBd'b | "D"afda fdba | "A7"geba geba | "D"fdba fdga |
"G"bgdB GBd'b | "D"afda fdc'b | "A7"abc'b agfe | "A7"(3ded ce "D"d2 :|

%%sep 2 1 500

